X: 62
T:The Cliffs of Moher
R:Jig
M:6/8
S:Paddy Canny, Clare (fiddle)
D:Private tape
N:As played
Z:Bernie Stocks
H:A major version of a usually minor tune.
H:'c' very mobile and the 'Bb' slid, actually a slid 'B' that
H:never quite makes it.
K:G
~g3 agf | d2g fdc | _B2G AGF | DGG ABc | dgg agf | dgg fdc | _B2G AGF |
DC_B, G,3 | ~g3 agf | dgg fdc | _B2G AGF | DGG ABc | d(3.g.g.g agf |
dgg fdc | _B2G AGF | DGF GAc || ~d3 cAG | Add cAG | FGA {d}cAG | FGA cBc |
~d3 cAG | Add cAG | FGA {d}cAG | DGF G2A | ~d3 cAG | Add cAG |
FGA {d}cAG | FGA ~c3 | Add edd | ^cdd Bdd | GBd AFA | GBd ~f3 ||
<end>
<start>
